_includes/icons/ios-idea.svg

<svg fill="#666" height="50" viewBox="0 0 50 50" width="50" xmlns="http://www.w3.org/2000/svg"><path d="m25 3c-8.273437 0-15 6.726563-15 15 0 5.058594 1.929688 8.066406 3.75 10.15625.910156 1.046875 1.789063 1.890625 2.375 2.65625.585938.765625.875 1.382813.875 2.1875v10c0 1.644531 1.355469 3 3 3h1.15625c.445313 1.71875 1.992188 3 3.84375 3 1.851563 0 3.398438-1.28125 3.84375-3h1.15625c1.644531 0 3-1.355469 3-3v-10c0-1.128906.332031-1.910156.90625-2.71875s1.4375-1.613281 2.34375-2.59375c1.808594-1.964844 3.75-4.722656 3.75-9.6875 0-8.273437-6.726562-15-15-15zm0 2c7.191406 0 13 5.808594 13 13 0 4.46875-1.558594 6.511719-3.25 8.34375-.84375.917969-1.730469 1.746094-2.46875 2.78125s-1.28125 2.3125-1.28125 3.875v5h-12v-5c0-1.347656-.585937-2.460937-1.3125-3.40625-.726562-.945312-1.597656-1.789062-2.4375-2.75-1.679687-1.925781-3.25-4.269531-3.25-8.84375 0-7.191406 5.808594-13 13-13zm-4.09375 12.96875c-.042969.007813-.085937.019531-.125.03125-.375.066406-.675781.339844-.78125.703125-.105469.367188.003906.757813.28125 1.015625l3.71875 3.71875v12.5625h2v-12.5625l3.71875-3.71875c.398438-.398437.398438-1.039062 0-1.4375-.398437-.398437-1.039062-.398437-1.4375 0l-3.28125 3.28125-3.28125-3.28125c-.207031-.222656-.507812-.335937-.8125-.3125zm-1.90625 22.03125h12v3c0 .554688-.445312 1-1 1h-7.8125c-.132812-.027344-.273437-.027344-.40625 0h-1.78125c-.554687 0-1-.445312-1-1zm4.28125 6h3.4375c-.34375.597656-.972656 1-1.71875 1s-1.375-.402344-1.71875-1z"/></svg>

<svg xmlns="http://www.w3.org/2000/svg" viewBox="0 0 50 50" width="50" height="50" fill="#666"><path d="M 25 3 C 16.726563 3 10 9.726563 10 18 C 10 23.058594 11.929688 26.066406 13.75 28.15625 C 14.660156 29.203125 15.539063 30.046875 16.125 30.8125 C 16.710938 31.578125 17 32.195313 17 33 L 17 43 C 17 44.644531 18.355469 46 20 46 L 21.15625 46 C 21.601563 47.71875 23.148438 49 25 49 C 26.851563 49 28.398438 47.71875 28.84375 46 L 30 46 C 31.644531 46 33 44.644531 33 43 L 33 33 C 33 31.871094 33.332031 31.089844 33.90625 30.28125 C 34.480469 29.472656 35.34375 28.667969 36.25 27.6875 C 38.058594 25.722656 40 22.964844 40 18 C 40 9.726563 33.273438 3 25 3 Z M 25 5 C 32.191406 5 38 10.808594 38 18 C 38 22.46875 36.441406 24.511719 34.75 26.34375 C 33.90625 27.261719 33.019531 28.089844 32.28125 29.125 C 31.542969 30.160156 31 31.4375 31 33 L 31 38 L 19 38 L 19 33 C 19 31.652344 18.414063 30.539063 17.6875 29.59375 C 16.960938 28.648438 16.089844 27.804688 15.25 26.84375 C 13.570313 24.917969 12 22.574219 12 18 C 12 10.808594 17.808594 5 25 5 Z M 20.90625 17.96875 C 20.863281 17.976563 20.820313 17.988281 20.78125 18 C 20.40625 18.066406 20.105469 18.339844 20 18.703125 C 19.894531 19.070313 20.003906 19.460938 20.28125 19.71875 L 24 23.4375 L 24 36 L 26 36 L 26 23.4375 L 29.71875 19.71875 C 30.117188 19.320313 30.117188 18.679688 29.71875 18.28125 C 29.320313 17.882813 28.679688 17.882813 28.28125 18.28125 L 25 21.5625 L 21.71875 18.28125 C 21.511719 18.058594 21.210938 17.945313 20.90625 17.96875 Z M 19 40 L 31 40 L 31 43 C 31 43.554688 30.554688 44 30 44 L 22.1875 44 C 22.054688 43.972656 21.914063 43.972656 21.78125 44 L 20 44 C 19.445313 44 19 43.554688 19 43 Z M 23.28125 46 L 26.71875 46 C 26.375 46.597656 25.746094 47 25 47 C 24.253906 47 23.625 46.597656 23.28125 46 Z"/></svg>
